X:228
T:New Rigged Ship
R:jig 32
S:Thomas Hardy collection
M:6/8
L:1/8
Q:1/4=140
K:G
|:zD|GFG G2B|GFG G2B|AFD DEF|AFD DEF|
GFG G2B|GFG G2B|AFD DEF|1G4:|2G3||!
|:B2c|d2B d2B|G2G GBd|e2c e2c|A2A ABc|
d2B d2B|G2G GAB|AFD DEF|1G3:|2G4|]

